X:1
T:Peg O' My Heart
C:Fred Fisher
L:1/4
M:4/4
I:linebreak $
K:C
V:1 treble nm="Voice" snm="Ch"
V:1
"Cmaj7" E/G/A/B/- B2- | B A G E |"D7" ^F/A/c/e/- e2- | e d c A |$"Dm7" A/G/B/A/-"G7" A2 | %5
w: Peg o' my heart *|* I love you.|Don't let us part, *|* I love you.|I al- ways knew, *|
w: Peg o' my heart, *|* I love you.|We'll nev- er part, *|* I love you.|Dear lit- tle girl, *|
"Dm7" A/G/B/A/-"G7" A2 |$"Cmaj7" e/B/d/c/"A7" E/G/B/A/ |"Dm7" G/^G/B/A/"G7" =G/^F/=F/D/ |$ %8
w: it would be you, *|since I heard your lilt- ing laugh- ter.|It's your Ir- ish heart I'm af- ter.|
w: sweet lit- tle girl, *|sweet- er than the Rose of Er- in|are your win- ning smiles en- dear- in'.|
"Cmaj7" E/G/A/B/- B2- | B A G E |"D7" ^F/A/c/e/- e2- |$ e d c A |"Dm7" A/G/B/A/-"G7" A2 | %13
w: Peg o' my heart, *|* your glan- ces|make my heart say, *|* "How's chan- ces?"|Come, be my own, *|
w: Peg o' my heart, *|* your glan- ces|with Ir- ish art, *|* en- tran- ces.|Come, be my own, *|
"Dm7" A/G/d/A/-"G7" A/G/ e |$"C" c4- |"Dm7" c2"G7" z2 |"Cmaj7" E/G/A/B/- B2- | B A G E | %18
w: come make your home * in my|heart.||Peg o' my heart *|* I love you.|
w: come make your home * in my|||Peg o' my heart, *|* I love you.|
"D7" ^F/A/c/e/- e2- | e d c A |$"Dm7" A/G/B/A/-"G7" A2 |"Dm7" A/G/B/A/-"G7" A2 |$ %22
w: Don't let us part, *|* I love you.|I al- ways knew, *|it would be you, *|
w: We'll nev- er part, *|* I love you.|Dear lit- tle girl, *|sweet lit- tle girl, *|
"Cmaj7" e/B/d/c/"A7" E/G/B/A/ |"Dm7" G/^G/B/A/"G7" =G/^F/=F/D/ |$"Cmaj7" E/G/A/B/- B2- | B A G E | %26
w: since I heard your lilt- ing laugh- ter.|It's your Ir- ish heart I'm af- ter.|Peg o' my heart, *|* your glan- ces|
w: sweet- er than the Rose of Er- in|are your win- ning smiles en- dear- in'.|Peg o' my heart, *|* your glan- ces|
"D7" ^F/A/c/e/- e2- |$ e d c A |"Dm7" A/G/B/A/-"G7" A2 |"Dm7" A/G/d/A/-"G7" A/G/ e |$"C" c4- | %31
w: make my heart say, *|* "How's chan- ces?"|Come, be my own, *|come make your home * in my|heart.|
w: with Ir- ish art, *|* en- tran- ces.|Come, be my own, *|come make your home * in my||
"Dm7" c2"G7" z2 |"C" c4 | %33
w: |heart.|
w: ||
